X:08
T: Chilly Winds of Shannon
C: Bill Monroe
Z: TablEdited by Mike Stangeland for MandoZine
S: MandoZine TablEdit Archives
L:1/8
Q:298
M:4/4
K:A
 |: "A"=g/f/e AA AA A2 | "G"a/=g/e d=c d2 de | "A"=g/f/e AA A=G EG | AA A[A=G] [A2E2] [AE][eA] |
 =g/f/e AA AA A2 | "G"a/=g/e d=c d2 de | "A"=g/f/e =c/B/A A=G E2 | "E"=GA AA "A"A4
 |1 [AE]"A"[AE] [eA][eA] [e=c][AE] [A2E2] | "G"[B=G][B=G] [B=G][=GE] [=GE][=GD] [=G2D2] |
 "A"[AE][AE] [eA][eA] [e=c][AE] [A2E2] | "E"A=c [eeB][eeB] [e2e2B2] [e2e2B2] |
 "A"[AE][AE] [AA][AA] [A=c][AE] [A2E2] | "G"[B=G][B=G] [B=G][=GE] [=GE][=GD] [=G2D2] |
 "A"[AE][AE] [AA][AA] [A=c][AE] [A2E2] | "E"[G2E2] [G2E2] "A"[A4A4E4]
 :|2 [AE]"A"[AE] [AA][AA] [A=c][AE] [A2E2] | "G"E=G B=c BA =G2 |
 "A"[AE][AE] [AA][AA] [A=c][AA] [A=c][Ad] | "E"[eeB][eeB] [eeB][eeB] [e2e2B2] [e2e2B2] |
 "A"[AE][AE] [AA][AA] [A=c][AE] [A2E2] | "G"E=G B=c BA =G2 |
 "A"[AE][AE] [AA][AA] [A=c][AA] [AA][A=G] | "E"[AE][A=G] [AE]"A"[A=G] [e4A4A4E4] |
